X: 7
T: Julia Delaney's
R: reel
M: 4/4
L: 1/8
K: Ddor
|: c | "Dm"dcAG {FG}F2 DF | "C"{EF}E2 CE "F" FEFA | "Dm"dcAG {FG}F2 DF | "Dm"Ad{e}d^c defe |
"Dm"dcAG {FG}F2 DF | "C"{EF}E2 CE "F"FEFA | "Dm"dcAG {FG}F2 DF | "Dm"Ad{e}d^c d2 d :|
|: e | "Dm"fede "F"fagf | "C"ecgc acge | "Dm"fede "F"fagf | "C"edcG "Dm"Adde |
"Dm"fede "F"fagf | "C"ecgc acge | "Dm"fedf "C"edcG | "Dm"Ad{e}d^c d2 d :|


Tune 589	Setting 13588

